src/assets/header/span.svg

<svg width="84" height="68" viewBox="0 0 84 68" fill="none" xmlns="http://www.w3.org/2000/svg">
<g id="Group 143725865">
<g id="Group 143725864">
<path id="Vector" d="M19.6535 66.9171C17.2138 66.3746 15.2523 65.2276 13.7692 63.476C12.286 61.7244 11.544 59.1201 11.5432 55.663V52.1042C11.5432 47.7726 11.3544 44.7431 10.9769 43.0159C10.5993 41.2886 9.63132 40.05 8.07282 39.3002C6.64207 38.6154 4.25825 38.2449 0.921344 38.1886C0.675754 38.185 0.441426 38.0824 0.269019 37.903C0.096611 37.7237 -2.56554e-05 37.482 5.10903e-09 37.2301V31.1641C-2.34007e-05 30.9124 0.0966327 30.6707 0.269057 30.4914C0.441482 30.3122 0.67581 30.2097 0.921344 30.2063C4.21239 30.1471 6.58392 29.7629 8.03596 29.0538C9.62027 28.2804 10.601 26.9912 10.9781 25.1863C11.3553 23.3814 11.544 20.3129 11.5444 15.9809V12.8868C11.5444 9.38106 12.2864 6.75133 13.7704 4.99762C15.2544 3.24391 17.2158 2.11031 19.6547 1.59684C21.8922 1.12451 24.733 0.868603 28.1772 0.829137C28.3003 0.828047 28.4225 0.851912 28.5367 0.899357C28.6508 0.946801 28.7547 1.01689 28.8424 1.10561C28.9303 1.19475 29.0001 1.30086 29.0477 1.41782C29.0954 1.53478 29.1199 1.66027 29.12 1.78702V6.83656C29.1201 7.08588 29.0254 7.32541 28.856 7.50427C28.6866 7.68314 28.4558 7.78723 28.2128 7.79445C26.0876 7.85742 24.4291 8.14985 23.2375 8.67173C21.8789 9.26539 20.9354 10.2193 20.4072 11.5334C19.8789 12.8476 19.615 14.6909 19.6154 17.0635V22.9424C19.6154 26.2949 19.1627 28.835 18.2574 30.5627C17.352 32.2904 15.7431 33.4891 13.4307 34.1587C15.7431 34.7784 17.352 35.9259 18.2574 37.6011C19.1627 39.2763 19.6154 41.7903 19.6154 45.1432V51.4876C19.6154 53.8598 19.8793 55.7031 20.4072 57.0177C20.935 58.3322 21.8784 59.2865 23.2375 59.8806C24.43 60.4008 26.0884 60.6928 28.2128 60.7566C28.4558 60.7638 28.6866 60.8679 28.856 61.0468C29.0254 61.2257 29.1201 61.4652 29.12 61.7145V66.7666C29.1199 66.8931 29.0953 67.0184 29.0476 67.1352C29 67.2519 28.9302 67.3578 28.8424 67.4467C28.7544 67.5359 28.65 67.6063 28.5353 67.6537C28.4206 67.7012 28.2978 67.7248 28.1741 67.7232C24.7295 67.6821 21.8893 67.4134 19.6535 66.9171Z" fill="#24A556"/>
<path id="Vector_2" d="M64.3465 66.9171C66.7862 66.3746 68.7477 65.2276 70.2308 63.476C71.714 61.7244 72.456 59.1201 72.4568 55.663V52.1042C72.4568 47.7726 72.6456 44.7431 73.0231 43.0159C73.4007 41.2886 74.3687 40.05 75.9272 39.3002C77.3579 38.6154 79.7418 38.2449 83.0787 38.1886C83.3242 38.185 83.5586 38.0824 83.731 37.903C83.9034 37.7237 84 37.482 84 37.2301V31.1641C84 30.9124 83.9034 30.6707 83.7309 30.4914C83.5585 30.3122 83.3242 30.2097 83.0787 30.2063C79.7876 30.1471 77.4161 29.7629 75.964 29.0538C74.3797 28.2804 73.399 26.9912 73.0219 25.1863C72.6447 23.3814 72.456 20.3129 72.4556 15.9809V12.8868C72.4556 9.38106 71.7136 6.75133 70.2296 4.99762C68.7456 3.24391 66.7842 2.11031 64.3453 1.59684C62.1078 1.12451 59.267 0.868603 55.8228 0.829137C55.6997 0.828047 55.5775 0.851912 55.4633 0.899357C55.3492 0.946801 55.2453 1.01689 55.1576 1.10561C55.0697 1.19475 54.9999 1.30086 54.9523 1.41782C54.9046 1.53478 54.8801 1.66027 54.88 1.78702V6.83656C54.8799 7.08588 54.9746 7.32541 55.144 7.50427C55.3134 7.68314 55.5442 7.78723 55.7872 7.79445C57.9124 7.85742 59.5709 8.14985 60.7625 8.67173C62.1211 9.26539 63.0646 10.2193 63.5928 11.5334C64.1211 12.8476 64.385 14.6909 64.3846 17.0635V22.9424C64.3846 26.2949 64.8373 28.835 65.7426 30.5627C66.648 32.2904 68.2569 33.4891 70.5693 34.1587C68.2569 34.7784 66.648 35.9259 65.7426 37.6011C64.8373 39.2763 64.3846 41.7903 64.3846 45.1432V51.4876C64.3846 53.8598 64.1207 55.7031 63.5928 57.0177C63.065 58.3322 62.1216 59.2865 60.7625 59.8806C59.57 60.4008 57.9116 60.6928 55.7872 60.7566C55.5442 60.7638 55.3134 60.8679 55.144 61.0468C54.9746 61.2257 54.8799 61.4652 54.88 61.7145V66.7666C54.8801 66.8931 54.9047 67.0184 54.9524 67.1352C55 67.2519 55.0698 67.3578 55.1576 67.4467C55.2456 67.5359 55.35 67.6063 55.4647 67.6537C55.5794 67.7012 55.7022 67.7248 55.8259 67.7232C59.2705 67.6821 62.1107 67.4134 64.3465 66.9171Z" fill="#24A556"/>
</g>
</g>
</svg>

<svg width="84" height="68" fill="none" xmlns="http://www.w3.org/2000/svg"><g fill="#24A556"><path d="M19.654 66.917c-2.44-.542-4.402-1.69-5.885-3.441-1.483-1.752-2.225-4.356-2.226-7.813v-3.559c0-4.331-.189-7.36-.566-9.088-.378-1.727-1.346-2.966-2.904-3.716-1.43-.685-3.815-1.055-7.152-1.111a.923.923 0 0 1-.652-.286A.97.97 0 0 1 0 37.23v-6.066a.97.97 0 0 1 .27-.673.923.923 0 0 1 .651-.285c3.291-.059 5.663-.443 7.115-1.152 1.584-.774 2.565-2.063 2.942-3.868.377-1.805.566-4.873.566-9.205v-3.094c0-3.506.742-6.136 2.226-7.89 1.484-1.753 3.446-2.887 5.885-3.4 2.237-.472 5.078-.728 8.522-.768a.916.916 0 0 1 .665.277.96.96 0 0 1 .278.681v5.05a.97.97 0 0 1-.264.667.924.924 0 0 1-.643.29c-2.125.063-3.784.356-4.976.878-1.358.593-2.302 1.547-2.83 2.861-.528 1.315-.792 3.158-.792 5.53v5.88c0 3.352-.452 5.892-1.358 7.62-.905 1.727-2.514 2.926-4.826 3.596 2.312.62 3.921 1.767 4.826 3.442.906 1.675 1.358 4.19 1.358 7.542v6.345c0 2.372.264 4.215.792 5.53.528 1.314 1.471 2.268 2.83 2.863 1.193.52 2.851.812 4.976.876a.924.924 0 0 1 .643.29.97.97 0 0 1 .264.668v5.052a.977.977 0 0 1-.278.68.931.931 0 0 1-.668.276c-3.444-.04-6.285-.31-8.52-.806ZM64.347 66.917c2.44-.542 4.4-1.69 5.884-3.441 1.483-1.752 2.225-4.356 2.226-7.813v-3.559c0-4.331.189-7.36.566-9.088.378-1.727 1.346-2.966 2.904-3.716 1.43-.685 3.815-1.055 7.152-1.111a.924.924 0 0 0 .652-.286.971.971 0 0 0 .269-.673v-6.066a.97.97 0 0 0-.27-.673.923.923 0 0 0-.651-.285c-3.291-.059-5.663-.443-7.115-1.152-1.584-.774-2.565-2.063-2.942-3.868-.377-1.805-.566-4.873-.566-9.205v-3.094c0-3.506-.742-6.136-2.226-7.89-1.484-1.753-3.446-2.887-5.885-3.4-2.237-.472-5.078-.728-8.522-.768a.916.916 0 0 0-.665.277.96.96 0 0 0-.278.681v5.05c0 .249.095.488.264.667.17.18.4.283.643.29 2.125.063 3.784.356 4.976.878 1.358.593 2.302 1.547 2.83 2.861.528 1.315.792 3.158.792 5.53v5.88c0 3.352.452 5.892 1.358 7.62.905 1.727 2.514 2.926 4.826 3.596-2.312.62-3.921 1.767-4.826 3.442-.906 1.675-1.358 4.19-1.358 7.542v6.345c0 2.372-.264 4.215-.792 5.53-.528 1.314-1.471 2.268-2.83 2.863-1.193.52-2.851.812-4.976.876a.924.924 0 0 0-.643.29.97.97 0 0 0-.264.668v5.052a.977.977 0 0 0 .278.68.931.931 0 0 0 .668.276c3.444-.04 6.285-.31 8.52-.806Z"/></g></svg>
